X: 37703
T: Soft Horse
R: reel
M: 4/4
K: Dmajor
|D2 AE FEDF|Eee^d e=dBc|dA~A2 BdAF|GE (3FED B,DA,B,|
D2 AE FEDF|Eee^d e=dBc|dA~A2 BdAF|1 GFEF D2 FE:|2 GFEF D2 FA||
BF~F2 Bcdc|BG~G2 BcdB|cA~A2 cdeA|^GBed cA=GE|
D2 AE FEDF|Eee^d e=dBc|dA~A2 BdAF|1 GFEF D2 FA:|2 GFEF D2 FE||

